X: 23508
T: Liam O'Flynn's
R: reel
M: 4/4
K: Gmajor
|:G2 BG cABG|AD D2 FGAF|G2 BG cABG|Addc AGGF|
G3B c3B|AD D2 FGAF|G2 BG cABG|Addc AGGf:|
|:g2 dg Bg g2|g2 dg eaaf|g2 dg Bggd|cAdc AGGf|
g2 dg Bg g2|g2 dg eaaf|g2 dg Bggd|cAdc AGGF:|

